X: 15689
T: Golden Eagle, The
R: hornpipe
M: 4/4
K: Gmajor
GBDG [B,B]DGB|dGBd gbag|fAed cFBA|GDAG FDcA|
GBDG [B,B]DGB|dGBd gbag|fed^c =cFBA|G2 FA G2:|
bB^df bagf|e^def gfg^g|aA^ce agfe|dA^ce d2 ab|
c'afd ^cdef|gfga b2 ag|fed^c =cFBA|G2 F2 G2:|

